X:1
T:23.  Komm, heilger Geist, o Schöpfer du
T:Hugo Distler
T:Veni creator spiritus, Rabanus Maurus (c. 776 – 856) Tr. Martin Luther (1529) var.
T:23.  Come, Holy Ghost, Creator, God Komm, heilger Geist, o Schöpfer du Pentecost
T:Bärenreiter
T:Bärenreiter
T:Bärenreiter
T:Bärenreiter
T:Bärenreiter
C:Hugo Distler
Z:Veni creator spiritus, Rabanus Maurus (c. 776 – 856)
Z:Tr. Martin Luther (1529) var.
Z:Bärenreiter
%%score [ ( 1 2 ) ( 3 4 ) 5 ]
L:1/8
Q:1/4=92
M:4/4
K:Bb
V:1 treble nm="Soprano"
V:2 treble 
V:3 treble nm="Alto"
V:4 treble 
V:5 bass nm="Bass"
V:1
 F4 G2 F2 | E2 F2 B2 c2 | !breath!B2 B2 F2 G2 |"^Calmly [Ruhig!]" B2 c2 d2 d2 | =e6 z2 | %5
w: 1. Come, Ho- ly|Ghost, Cre- a- tor,|God, Your chil- dren|long to hear Your|voice;|
w: 3. We call You|Com- fort- er, O|Lord, the pro- mise|of the most high|God,|
w: 5. Drive far from|us our en- e-|my and lead us|in the path of|peace|
w: 7. Praise to the|Fa- ther, Lord of|all, and to His|Son, the Star of|Life,|
 z2 c2 d2 B2 | G2 F2 (GA) B2 | c4 z4 | z2 F2"^Calmly [Ruhig!]" BGEG | F3 F F4 |][M:4/4] z4 | %11
w: in grace re-|fresh, O Guest _ most|dear,|the soul You have cre-|a- ted here.||
w: the source of|love, the well _ of|life,|our hearts' sweet un- guent,|fount of grace.||
w: that we, led|by Thy grace _ di-|vine,|un- touched by e- vil|may re- main.||
w: and to the|Ho- ly Spi- * rit,|too,|be now and ev- er|glo- ry giv'n.||
 F4 G2 F2 | E2 F2 B2 c2 | !breath!B4 B2 (F2- | FG) A2 B2 c2 | d2 d2 !breath!c2 c2 | d2 c2 G2 F2 | %17
w: *2. The light of|un- der- stand- ing|grant, ig- nite|_ _ in me the|fire of love, and|strength- en my weak|
w: 4. O source of|all the gifts of|grace, O Hand|_ _ of God that|won- ders makes, You|free our tongues to|
w: 6. Teach us the|Fa- ther's will to|know and how|_ _ to glo- ri-|fy the Son, through|faith make them to|
w: ||||||
 A2 B2 c4 | z4 F2 B2- | BG F2 !breath!G2 GA | B2 F2 E3 E | F8 |] %22
w: flesh and blood|with Your|_ strong spi- rit, Your strong|spi- rit, heav'n- ly|food.|
w: speak Your praise|and free-|* ly give, and free- ly|give Your Word to|save.|
w: us be known,|as You|_ from both, as You from|both of them did|come.|
w: |||||
V:2
 x8 | x8 | x8 | x6 d2 | c6 x2 | x8 | x6 B2 | A4 x4 | x8 | x8 |][M:4/4] x4 | x8 | x8 | x8 | x8 | %15
 x8 | x8 | A2 A2 G4 | x8 | x8 | x8 | x8 |] %22
V:3
 F2 (F3 E D2) | C2 D4 (EF) | G2 A2 !breath!B2 B2 | BBB_A c3 B | !breath!G2 G2 =A2 F2 | %5
w: 1. Come, Ho- * *|ly Ghost, Cre- *|a- tor, God, Your|chil- dren long to hear Your|voice; in grace re-|
w: 3. We call _ _|You Com- fort- *|er, O Lord, the|pro- mise of the most high|God, the source of|
w: 5. Drive far _ _|from us our _|en- e- my and|lead us in the path of|peace that we be|
w: 7. Praise to _ _|the Fa- ther, _|Lord of all, and|to His Son, the Star of|Life, and to the|
 !breath!D2 C2 F2 G2 | E2 (CB,) D2 D2 | F4 z2 B2 | E2 F2 (GF) (ED) | C2 C2 D4 |][M:4/4] C4 | %11
w: fresh, O Guest most|dear, O _ Guest most|dear, the|soul You have _ cre- *|a- ted here.|*2. The|
w: love, the well of|life, the _ well of|life, our|hearts' sweet un- * guent, _|fount of grace.|4. O|
w: led, that we, led|by Thy _ grace di-|vine, un-|touched by e- * vil _|may re- main.|6. Teach|
w: Ho- ly Spi- rit,|too, the _ Spi- rit,|too, be|now and ev- * er _|glo- ry giv'n.||
 (D2 C2) B,4 | E4 D2 G2 | F2 EE !breath!D4 | F2 (C3 D) =E2 | F2 G2 A3 A | !breath!G4 G2 (A2- | %17
w: light, _ the|light of un-|der- stand- ing grant,|ig- nite _ in|me the fire of|love, and strength-|
w: source, _ O|source of all|the gifts of grace,|O Hand _ of|God that won- ders|makes, You free|
w: us, _ teach|us the Fa-|ther's will to know|and how _ to|glo- ri- fy the|Son, through faith|
w: ||||||
 AG) F2 _E2 D2 | G2 =E2 !breath!D4 | B,2 D2 C2 (G2- | GFED) (CB,) C2- | C2 B,2 D4 |] %22
w: * * en my weak|flesh and blood|with Your strong spi-|* * * * rit, _ heav'n-|* ly food.|
w: _ _ our tongues to|speak Your praise|and free- ly give|_ _ _ _ Your _ Word|_ to save.|
w: _ _ make them to|us be known,|as You from both|_ _ _ _ of _ them|_ did come.|
w: |||||
V:4
 x8 | x8 | x8 | x8 | x8 | x8 | x8 | x8 | x8 | x8 |][M:4/4] x4 | x8 | x8 | x8 | x8 | x8 | x8 | x8 | %18
 x8 | x8 | x8 | x2 B,2 B,4 |] %22
V:5
 z4 z2 B,2 | C2 B,2 G,B, _A,2 | E,4 !breath!B,2 B,2 | =A,G,F,C, G,2 G,2 | !breath!C,3 C F,F, B,2- | %5
w: 1. Come,|Ho- ly Ghost, Cre- a-|tor, God, Your|chil- dren long to hear Your|voice; in grace re- fresh,|
w: 3. We|call You Com- fort- er,|O Lord, the|pro- mise of the most high|God, the source of love,|
w: 5. Drive|far from us our en-|e- my and|lead us in the path of|peace that we, led by|
w: 7. Praise|to the Fa- ther, Lord|of all, and|to His Son, the Star of|Life, and to the Ho-|
 B,2 A,2 (D4 | CB, A,2) G,4 | !breath!F,2 F,2 B,3 A, | G,2 F,2 (E,D,C,B,, | C,2) F,2 B,,4 |] %10
w: _ O Guest|_ _ _ most|dear, the soul You|have cre- a- * * *|* ted here.|
w: _ the well|_ _ _ of|life, our hearts' sweet|un- guent, fount _ _ _|_ of grace.|
w: _ Thy grace|_ _ _ di-|vine, un- touched by|e- vil may _ _ _|_ re- main.|
w: * ly Spi-|* * * rit,|too, be now and|ev- er glo- * * *|* ry giv'n.|
[M:4/4] z4 | z8 | z8 | z8 | z8 | z8 | z8 | z8 | z8 | z8 | z8 | z8 |] %22
w: ||||||||||||
w: ||||||||||||
w: ||||||||||||
w: ||||||||||||

